Obsidian/actions/22s/view-left-close.svg

<svg height="22" viewBox="0 0 22 22" width="22" xmlns="http://www.w3.org/2000/svg"><path d="m16 1c-5.333-.002-10.6667.0059062-16 .0039062v13.9999998c5.333.002 10.6667-.005906 16-.003906zm-7 2 5 .0039062v10.0019528l-5-.001953zm-6.5 2 1.5 1.5 1.5-1.5 1.5 1.5-1.5 1.5 1.5 1.5-1.5 1.5-1.5-1.5-1.5 1.5-1.5-1.5 1.5-1.5-1.5-1.5z" fill="#bebebe" transform="translate(3 3)"/></svg>

<svg xmlns="http://www.w3.org/2000/svg" width="22" height="22" viewBox="0 0 22 22">
 <defs>
  <style id="current-color-scheme" type="text/css">
   .ColorScheme-Text { color:#bebebe; } .ColorScheme-Highlight { color:#4285f4; }
  </style>
 </defs>
 <path style="fill:currentColor" class="ColorScheme-Text" d="M 16 1 C 10.667 0.998 5.3333 1.0059062 0 1.0039062 L 0 15.003906 C 5.333 15.005906 10.6667 14.998 16 15 L 16 1 z M 9 3 L 14 3.0039062 L 14 13.005859 L 9 13.003906 L 9 3 z M 2.5 5 L 4 6.5 L 5.5 5 L 7 6.5 L 5.5 8 L 7 9.5 L 5.5 11 L 4 9.5 L 2.5 11 L 1 9.5 L 2.5 8 L 1 6.5 L 2.5 5 z" transform="translate(3 3)"/>
</svg>
